; generated by PrusaSlicer 2.6.0+win64 on 2024-02-02 at 16:41:41 UTC

; 

; external perimeters extrusion width = 0.63mm
; perimeters extrusion width = 0.66mm
; infill extrusion width = 0.66mm
; solid infill extrusion width = 0.66mm
; top infill extrusion width = 0.60mm
; first layer extrusion width = 0.63mm

M201 X500 Y500 Z100 E5000 ; sets maximum accelerations, mm/sec^2
M203 X500 Y500 Z10 E60 ; sets maximum feedrates, mm / sec
M204 S500 T1000 ; sets acceleration (S) and retract acceleration (R), mm/sec^2
M205 X8.00 Y8.00 Z0.40 E5.00 ; sets the jerk limits, mm/sec
M205 S0 T0 ; sets the minimum extruding and travel feed rate, mm/sec
;TYPE:Custom
G90 ; use absolute coordinates
M83 ; extruder relative mode
M104 S150 ; set temporary nozzle temp to prevent oozing during homing
M140 S50 ; set final bed temp
G4 S30 ; allow partial nozzle warmup
G28 ; home all axis and restore leveling
G1 Z50 F240
G1 X2.0 Y10 F3000
M104 S240 ; set final nozzle temp
M190 S50 ; wait for bed temp to stabilize
M109 S240 ; wait for nozzle temp to stabilize
G1 Z0.28 F240
G92 E0
G1 X2.0 Y140 E10 F1500 ; prime the nozzle
G1 X2.3 Y140 F5000
G92 E0
G1 X2.3 Y10 E10 F1200 ; prime the nozzle
G92 E0
G21 ; set units to millimeters
G90 ; use absolute coordinates
M83 ; use relative distances for extrusion
; Filament gcode
M107
;LAYER_CHANGE
;Z:0.3
;HEIGHT:0.3
;BEFORE_LAYER_CHANGE
G92 E0
;0.3


G1 Z.3 F9000
;AFTER_LAYER_CHANGE
;0.3
G1 X76.259 Y74.493
M204 S500
;TYPE:Skirt/Brim
;WIDTH:0.63
G1 F424.314
G1 X76.764 Y73.975 E.05869
G1 X83.546 Y68.727 E.69571
G1 X87.648 Y66.388 E.38309
G1 X94.58 Y63.497 E.60934
G1 X99.709 Y62.101 E.43125
G1 X107.242 Y61.063 E.61692
G1 X112.442 Y61.054 E.42187
G1 X120.417 Y62.104 E.65259
G1 X125.038 Y63.373 E.38878
G1 X132.019 Y66.216 E.61153
G1 X136.593 Y68.854 E.42838
G1 X142.6 Y73.407 E.61151
G1 X146.043 Y76.807 E.39257
G1 X151.223 Y83.498 E.6865
G1 X153.609 Y87.642 E.38794
G1 X156.532 Y94.616 E.61348
G1 X157.899 Y99.71 E.42789
G1 X158.927 Y107.177 E.61151
G1 X158.958 Y112.015 E.39251
G1 X157.891 Y120.478 E.69203
G1 X156.646 Y125.027 E.38263
G1 X153.781 Y132.025 E.61348
G1 X151.146 Y136.593 E.42784
G1 X146.554 Y142.654 E.61691
G1 X143.224 Y146.036 E.38506
G1 X136.502 Y151.234 E.68938
G1 X132.331 Y153.606 E.38928
G1 X125.426 Y156.5 E.60741
G1 X120.291 Y157.899 E.43178
G1 X112.758 Y158.937 E.61692
G1 X108.011 Y158.974 E.38513
G1 X99.584 Y157.896 E.68925
G1 X94.963 Y156.627 E.38878
G1 X87.919 Y153.76 E.617
G1 X83.412 Y151.167 E.42185
G1 X77.395 Y146.589 E.61338
G1 X73.957 Y143.193 E.39205
G1 X68.777 Y136.502 E.6865
G1 X66.388 Y132.352 E.38849
G1 X63.497 Y125.42 E.60934
G1 X62.101 Y120.29 E.43133
G1 X61.073 Y112.823 E.61151
G1 X61.042 Y107.985 E.39251
G1 X62.111 Y99.591 E.6865
G1 X63.357 Y94.967 E.38852
G1 X66.214 Y88.021 E.60933
G1 X68.857 Y83.402 E.43175
G1 X73.428 Y77.391 E.61265
G1 X76.196 Y74.557 E.32139
G1 X78.814 Y78.083 F9000
G1 F424.314
G1 X79.554 Y77.582 E.0725
G1 X80.194 Y77.325 E.05595
G1 X80.824 Y77.199 E.05212
G1 X81.925 Y77.174 E.08935
G1 X82.564 Y77.27 E.05242
G1 X83.323 Y77.548 E.06558
G1 X83.73 Y77.781 E.03805
G1 X84.95 Y76.817 E.12615
G1 X84.835 Y75.998 E.0671
G1 X84.862 Y75.647 E.02856
G1 X84.84 Y75.072 E.04668
G1 X84.919 Y74.539 E.04371
G1 X85.547 Y73.081 E.12879
G1 X86.026 Y72.479 E.06241
G1 X86.347 Y72.178 E.0357
G1 X88.31 Y71.019 E.18494
G1 X88.881 Y70.829 E.04882
G1 X89.494 Y70.733 E.05034
G1 X90.312 Y70.766 E.06642
G1 X91.503 Y71.07 E.09972
G1 X92.085 Y71.352 E.05247
G1 X92.602 Y71.724 E.05167
G1 X92.953 Y72.084 E.04079
G1 X94.436 Y71.448 E.13091
G1 X94.512 Y71.081 E.03041
G1 X94.629 Y70.151 E.07604
G1 X94.948 Y69.279 E.07533
G1 X95.167 Y68.919 E.03419
G1 X95.937 Y68.013 E.09646
G1 X96.536 Y67.567 E.06059
G1 X97.02 Y67.313 E.04435
G1 X99.213 Y66.727 E.18416
G1 X99.776 Y66.705 E.04571
G1 X100.365 Y66.773 E.0481
G1 X100.973 Y66.947 E.05131
G1 X102.151 Y67.571 E.10815
G1 X102.635 Y67.977 E.05125
G1 X103.068 Y68.491 E.05452
G1 X103.349 Y68.964 E.04464
G1 X104.895 Y68.737 E.12677
G1 X105.157 Y68.068 E.05829
G1 X105.407 Y67.683 E.03724
G1 X105.754 Y67.066 E.05743
G1 X106.428 Y66.365 E.07889
G1 X107.318 Y65.783 E.08627
G1 X108.006 Y65.516 E.05987
G1 X108.492 Y65.411 E.04034
G1 X110.79 Y65.406 E.18644
G1 X111.393 Y65.548 E.05026
G1 X111.904 Y65.756 E.04476
G1 X112.395 Y66.046 E.04626
G1 X113.342 Y66.918 E.10444
G1 X113.73 Y67.433 E.05231
G1 X114.058 Y68.119 E.06169
G1 X114.207 Y68.641 E.04404
G1 X115.797 Y68.832 E.12992
G1 X116.047 Y68.551 E.03051
G1 X116.612 Y67.805 E.07592
G1 X117.323 Y67.21 E.07522
G1 X117.689 Y67.01 E.03384
G1 X118.736 Y66.626 E.09048
G1 X119.566 Y66.52 E.06788
G1 X120.016 Y66.533 E.03652
G1 X122.21 Y67.096 E.18376
G1 X122.738 Y67.359 E.04786
G1 X123.231 Y67.713 E.04924
G1 X123.784 Y68.3 E.06543
G1 X124.443 Y69.385 E.10299
G1 X124.633 Y69.922 E.04621
G1 X124.747 Y70.532 E.05035
G1 X124.753 Y71.133 E.04876
G1 X126.255 Y71.735 E.13128
G1 X126.568 Y71.529 E.0304
G1 X127.307 Y70.954 E.07597
G1 X128.15 Y70.563 E.07539
G1 X128.569 Y70.462 E.03497
G1 X129.796 Y70.368 E.09984
G1 X130.338 Y70.443 E.04439
G1 X131.038 Y70.653 E.05929
G1 X132.97 Y71.772 E.18113
G1 X133.382 Y72.154 E.04558
G1 X133.752 Y72.618 E.04815
G1 X134.058 Y73.171 E.05128
G1 X134.452 Y74.447 E.10834
G1 X134.507 Y75.076 E.05123
G1 X134.45 Y75.746 E.05455
G1 X134.314 Y76.28 E.04471
G1 X135.605 Y77.245 E.13076
G1 X135.961 Y77.128 E.0304
G1 X136.726 Y76.794 E.06772
G1 X137.372 Y76.645 E.05379
G1 X138.298 Y76.621 E.07515
G1 X139.352 Y76.836 E.08727
G1 X140.036 Y77.134 E.06053
G1 X140.407 Y77.364 E.03541
G1 X141.9 Y78.801 E.16812
G1 X142.365 Y79.466 E.06583
G1 X142.63 Y80.078 E.05411
G1 X142.777 Y80.692 E.05122
G1 X142.829 Y81.824 E.09194
G1 X142.752 Y82.446 E.05085
G1 X142.516 Y83.168 E.06163
G1 X142.213 Y83.722 E.05123
G1 X143.183 Y84.95 E.12696
G1 X144.002 Y84.836 E.06709
G1 X144.354 Y84.862 E.02864
G1 X144.93 Y84.84 E.04676
G1 X145.463 Y84.92 E.04373
G1 X146.922 Y85.549 E.1289
G1 X147.525 Y86.028 E.06248
G1 X147.826 Y86.35 E.03576
G1 X148.983 Y88.313 E.18486
G1 X149.172 Y88.885 E.04887
G1 X149.267 Y89.498 E.05033
G1 X149.234 Y90.315 E.06634
G1 X148.929 Y91.505 E.09966
G1 X148.647 Y92.086 E.05239
G1 X148.276 Y92.603 E.05163
G1 X147.916 Y92.953 E.04073
G1 X148.552 Y94.436 E.13091
G1 X148.919 Y94.512 E.03041
G1 X149.848 Y94.628 E.07595
G1 X150.72 Y94.948 E.07536
G1 X151.088 Y95.173 E.03499
G1 X152.022 Y95.974 E.09982
G1 X152.353 Y96.41 E.04441
G1 X152.698 Y97.054 E.05927
G1 X153.273 Y99.211 E.18111
G1 X153.295 Y99.773 E.04563
G1 X153.228 Y100.362 E.04809
G1 X153.054 Y100.97 E.05131
G1 X152.43 Y102.15 E.10829
G1 X152.024 Y102.634 E.05125
G1 X151.51 Y103.068 E.05458
G1 X151.036 Y103.349 E.0447
G1 X151.267 Y104.945 E.13083
G1 X151.601 Y105.113 E.03033
G1 X152.378 Y105.418 E.06772
G1 X152.94 Y105.769 E.05376
G1 X153.612 Y106.408 E.07523
G1 X154.206 Y107.304 E.08721
G1 X154.479 Y107.999 E.06058
G1 X154.579 Y108.424 E.03542
G1 X154.618 Y110.496 E.16813
G1 X154.477 Y111.295 E.06582
G1 X154.231 Y111.915 E.05411
G1 X153.9 Y112.453 E.05125
G1 X153.137 Y113.29 E.09189
G1 X152.643 Y113.675 E.05081
G1 X151.966 Y114.019 E.06161
G1 X151.36 Y114.197 E.05124
G1 X151.176 Y115.751 E.12696
G1 X151.837 Y116.249 E.06714
G1 X152.067 Y116.516 E.02859
G1 X152.488 Y116.907 E.04661
G1 X152.809 Y117.34 E.04373
G1 X153.396 Y118.815 E.12879
G1 X153.484 Y119.58 E.06247
G1 X153.47 Y120.019 E.03563
G1 X152.901 Y122.227 E.18499
G1 X152.631 Y122.765 E.04884
G1 X152.265 Y123.266 E.05034
G1 X151.664 Y123.821 E.06637
G1 X150.607 Y124.449 E.09975
G1 X149.996 Y124.661 E.05247
G1 X149.367 Y124.763 E.0517
G1 X148.865 Y124.757 E.04073
G1 X148.265 Y126.255 E.13092
G1 X148.471 Y126.568 E.0304
G1 X149.046 Y127.307 E.07597
G1 X149.437 Y128.15 E.07539
G1 X149.538 Y128.569 E.03497
G1 X149.632 Y129.796 E.09984
G1 X149.557 Y130.338 E.04439
G1 X149.347 Y131.038 E.05929
G1 X148.228 Y132.97 E.18113
G1 X147.846 Y133.382 E.04558
G1 X147.382 Y133.752 E.04815
G1 X146.829 Y134.058 E.05128
G1 X145.553 Y134.452 E.10834
G1 X144.924 Y134.507 E.05123
G1 X144.254 Y134.45 E.05455
G1 X143.72 Y134.314 E.04471
G1 X142.785 Y135.568 E.1269
G1 X143.049 Y136.148 E.0517
G1 X143.165 Y136.653 E.04204
G1 X143.343 Y137.25 E.05054
G1 X143.381 Y138.324 E.08719
G1 X143.159 Y139.378 E.08739
G1 X142.83 Y140.109 E.06504
G1 X142.579 Y140.483 E.03654
G1 X141.189 Y141.915 E.16191
G1 X140.449 Y142.417 E.07255
G1 X139.809 Y142.674 E.05595
G1 X139.178 Y142.801 E.05222
G1 X138.077 Y142.826 E.08935
G1 X137.437 Y142.73 E.0525
G1 X136.677 Y142.453 E.06563
G1 X136.271 Y142.219 E.03802
G1 X135.011 Y143.21 E.13005
G1 X135.033 Y143.584 E.03039
G1 X135.161 Y144.512 E.076
G1 X135.079 Y145.435 E.07518
G1 X134.949 Y145.87 E.03683
G1 X134.493 Y146.847 E.08747
G1 X133.981 Y147.509 E.0679
G1 X133.654 Y147.819 E.03656
G1 X131.704 Y148.971 E.18375
G1 X131.145 Y149.159 E.04785
G1 X130.546 Y149.257 E.04924
G1 X129.739 Y149.233 E.0655
G1 X128.507 Y148.932 E.10289
G1 X127.992 Y148.687 E.04627
G1 X127.481 Y148.336 E.0503
G1 X127.05 Y147.914 E.04894
G1 X125.564 Y148.552 E.1312
G1 X125.488 Y148.919 E.03041
G1 X125.371 Y149.85 E.07613
G1 X125.052 Y150.722 E.07533
G1 X124.826 Y151.09 E.03504
G1 X124.024 Y152.025 E.09994
G1 X123.587 Y152.355 E.04443
G1 X122.943 Y152.701 E.05931
G1 X120.785 Y153.274 E.18114
G1 X120.224 Y153.295 E.04555
G1 X119.635 Y153.227 E.0481
G1 X119.027 Y153.053 E.05131
G1 X117.849 Y152.429 E.10815
G1 X117.365 Y152.023 E.05125
G1 X116.932 Y151.509 E.05452
G1 X116.651 Y151.036 E.04464
G1 X115.103 Y151.263 E.12693
G1 X114.88 Y151.859 E.05163
G1 X114.605 Y152.298 E.04203
G1 X114.308 Y152.845 E.0505
G1 X113.576 Y153.632 E.0872
G1 X112.674 Y154.22 E.08735
G1 X111.924 Y154.505 E.06509
G1 X111.482 Y154.592 E.03655
G1 X109.486 Y154.621 E.16195
G1 X108.608 Y154.453 E.07252
G1 X107.974 Y154.182 E.05594
G1 X107.438 Y153.826 E.0522
G1 X106.641 Y153.065 E.0894
G1 X106.258 Y152.545 E.0524
G1 X105.916 Y151.811 E.0657
G1 X105.794 Y151.359 E.03798
G1 X104.203 Y151.168 E.13
G1 X103.953 Y151.449 E.03051
G1 X103.388 Y152.195 E.07592
G1 X102.677 Y152.79 E.07522
G1 X102.311 Y152.99 E.03384
G1 X101.264 Y153.374 E.09048
G1 X100.434 Y153.48 E.06788
G1 X99.984 Y153.467 E.03652
G1 X97.79 Y152.904 E.18376
G1 X97.262 Y152.641 E.04786
G1 X96.769 Y152.287 E.04924
G1 X96.216 Y151.7 E.06543
G1 X95.557 Y150.615 E.10299
G1 X95.367 Y150.078 E.04621
G1 X95.253 Y149.468 E.05035
G1 X95.247 Y148.866 E.04884
G1 X93.786 Y148.284 E.12759
G1 X93.186 Y148.762 E.06224
G1 X92.815 Y148.949 E.03371
G1 X92.38 Y149.228 E.04193
G1 X91.68 Y149.488 E.06058
G1 X90.158 Y149.632 E.12403
G1 X89.495 Y149.523 E.05451
G1 X88.995 Y149.365 E.04254
G1 X87.021 Y148.226 E.1849
G1 X86.597 Y147.831 E.04701
G1 X86.191 Y147.307 E.05378
G1 X85.89 Y146.727 E.05301
G1 X85.533 Y145.48 E.10523
G1 X85.487 Y144.841 E.05198
G1 X85.541 Y144.26 E.04734
G1 X85.68 Y143.716 E.04555
G1 X84.395 Y142.755 E.13018
G1 X84.039 Y142.872 E.0304
G1 X83.274 Y143.206 E.06772
G1 X82.628 Y143.355 E.05379
G1 X81.702 Y143.379 E.07515
G1 X80.648 Y143.165 E.08725
G1 X79.964 Y142.866 E.06056
G1 X79.593 Y142.636 E.03541
G1 X78.1 Y141.199 E.16812
G1 X77.635 Y140.534 E.06583
G1 X77.37 Y139.922 E.05411
G1 X77.223 Y139.308 E.05122
G1 X77.171 Y138.176 E.09194
G1 X77.248 Y137.554 E.05085
G1 X77.484 Y136.832 E.06163
G1 X77.787 Y136.278 E.05123
G1 X76.817 Y135.05 E.12696
G1 X75.998 Y135.165 E.0671
G1 X75.646 Y135.138 E.02864
G1 X75.07 Y135.16 E.04676
G1 X74.537 Y135.08 E.04373
G1 X73.078 Y134.451 E.1289
G1 X72.475 Y133.972 E.06248
G1 X72.174 Y133.65 E.03576
G1 X71.017 Y131.687 E.18486
G1 X70.828 Y131.115 E.04887
G1 X70.733 Y130.502 E.05033
G1 X70.766 Y129.685 E.06634
G1 X71.071 Y128.495 E.09966
G1 X71.353 Y127.914 E.05239
G1 X71.724 Y127.397 E.05163
G1 X72.084 Y127.047 E.04073
G1 X71.448 Y125.564 E.13091
G1 X71.081 Y125.488 E.03041
G1 X70.15 Y125.371 E.07613
G1 X69.279 Y125.052 E.07525
G1 X68.919 Y124.833 E.03419
G1 X68.013 Y124.063 E.09646
G1 X67.567 Y123.464 E.06059
G1 X67.313 Y122.98 E.04435
G1 X66.727 Y120.787 E.18416
G1 X66.705 Y120.224 E.04571
G1 X66.773 Y119.635 E.0481
G1 X66.947 Y119.027 E.05131
G1 X67.571 Y117.849 E.10815
G1 X67.977 Y117.365 E.05125
G1 X68.491 Y116.932 E.05452
G1 X68.964 Y116.651 E.04464
G1 X68.733 Y115.055 E.13083
G1 X68.399 Y114.887 E.03033
G1 X67.622 Y114.582 E.06772
G1 X67.06 Y114.231 E.05376
G1 X66.388 Y113.592 E.07523
G1 X65.794 Y112.696 E.08721
G1 X65.521 Y112.001 E.06058
G1 X65.421 Y111.576 E.03542
G1 X65.382 Y109.504 E.16813
G1 X65.523 Y108.705 E.06582
G1 X65.769 Y108.085 E.05411
G1 X66.1 Y107.547 E.05125
G1 X66.863 Y106.71 E.09189
G1 X67.357 Y106.325 E.05081
G1 X68.034 Y105.981 E.06161
G1 X68.64 Y105.803 E.05124
G1 X68.824 Y104.249 E.12696
G1 X68.163 Y103.751 E.06714
G1 X67.933 Y103.484 E.02859
G1 X67.51 Y103.092 E.04679
G1 X67.189 Y102.658 E.04379
G1 X66.603 Y101.182 E.12884
G1 X66.515 Y100.416 E.06255
G1 X66.53 Y99.977 E.03564
G1 X67.1 Y97.77 E.18493
G1 X67.371 Y97.232 E.04887
G1 X67.737 Y96.732 E.05027
G1 X68.338 Y96.177 E.06637
G1 X69.395 Y95.551 E.09966
G1 X70.005 Y95.339 E.05239
G1 X70.633 Y95.237 E.05162
G1 X71.135 Y95.243 E.04073
G1 X71.735 Y93.745 E.13092
G1 X71.529 Y93.432 E.0304
G1 X70.953 Y92.691 E.07614
G1 X70.562 Y91.848 E.07539
G1 X70.461 Y91.428 E.03505
G1 X70.367 Y90.2 E.09992
G1 X70.443 Y89.658 E.0444
G1 X70.654 Y88.958 E.05931
G1 X71.775 Y87.027 E.18115
G1 X72.157 Y86.615 E.04558
G1 X72.621 Y86.247 E.04805
G1 X73.174 Y85.94 E.05131
G1 X74.449 Y85.548 E.10822
G1 X75.077 Y85.493 E.05114
G1 X75.747 Y85.55 E.05455
G1 X76.28 Y85.686 E.04463
G1 X77.215 Y84.432 E.1269
G1 X76.951 Y83.852 E.0517
G1 X76.835 Y83.347 E.04204
G1 X76.657 Y82.748 E.0507
G1 X76.619 Y81.673 E.08727
G1 X76.842 Y80.618 E.08748
G1 X77.171 Y79.887 E.06504
G1 X77.423 Y79.513 E.03659
G1 X78.751 Y78.147 E.15456
G1 X79.156 Y78.542 F9000
G1 F424.314
G1 X79.796 Y78.094 E.06338
G1 X80.336 Y77.873 E.04734
G1 X80.864 Y77.764 E.04374
G1 X81.912 Y77.74 E.08505
G1 X82.446 Y77.824 E.04386
G1 X83.099 Y78.068 E.05656
G1 X83.476 Y78.291 E.03554
G1 X83.74 Y78.503 E.02747
G1 X84.918 Y77.55 E.12293
G1 X85.563 Y77.075 E.06499
G1 X85.402 Y76.007 E.08763
G1 X85.429 Y75.653 E.0288
G1 X85.404 Y75.127 E.04272
G1 X85.473 Y74.659 E.03838
G1 X86.014 Y73.404 E.11087
G1 X86.455 Y72.848 E.05757
G1 X86.708 Y72.614 E.02796
G1 X88.519 Y71.545 E.17061
G1 X88.993 Y71.384 E.04061
G1 X89.555 Y71.296 E.04615
G1 X90.204 Y71.322 E.0527
G1 X91.287 Y71.593 E.09057
G1 X91.776 Y71.826 E.04395
G1 X92.249 Y72.166 E.04726
G1 X92.816 Y72.767 E.06703
G1 X94.179 Y72.161 E.12102
G1 X94.882 Y71.886 E.06124
G1 X94.973 Y71.646 E.02082
G1 X95.072 Y71.17 E.03944
G1 X95.171 Y70.313 E.06999
G1 X95.468 Y69.503 E.06999
G1 X95.635 Y69.238 E.02541
G1 X96.302 Y68.447 E.08394
G1 X96.855 Y68.035 E.05595
G1 X97.251 Y67.83 E.03618
G1 X99.323 Y67.282 E.17388
G1 X99.77 Y67.271 E.03628
G1 X100.237 Y67.324 E.03813
G1 X100.739 Y67.463 E.04226
G1 X101.815 Y68.027 E.09856
G1 X102.22 Y68.362 E.04264
G1 X102.619 Y68.835 E.0502
G1 X102.858 Y69.25 E.03885
G1 X102.993 Y69.595 E.03006
G1 X104.521 Y69.354 E.1255
G1 X105.302 Y69.267 E.06375
G1 X105.649 Y68.349 E.07962
G1 X105.894 Y67.971 E.03655
G1 X106.191 Y67.426 E.05035
G1 X106.768 Y66.818 E.068
G1 X107.552 Y66.299 E.07628
G1 X108.188 Y66.052 E.05535
G1 X108.578 Y65.971 E.03232
G1 X110.754 Y65.971 E.17654
G1 X111.201 Y66.081 E.03735
G1 X111.642 Y66.257 E.03852
G1 X112.036 Y66.484 E.03689
G1 X112.939 Y67.315 E.09956
G1 X113.257 Y67.746 E.04345
G1 X113.535 Y68.336 E.05291
G1 X113.664 Y68.805 E.03946
G1 X113.701 Y69.159 E.02888
G1 X115.184 Y69.315 E.12098
G1 X115.964 Y69.434 E.06401
G1 X116.163 Y69.271 E.02087
G1 X116.486 Y68.908 E.03942
G1 X117.001 Y68.217 E.06992
G1 X117.662 Y67.664 E.06992
G1 X117.936 Y67.519 E.02515
G1 X118.841 Y67.183 E.07832
G1 X119.614 Y67.084 E.06323
G1 X119.964 Y67.096 E.02841
G1 X121.988 Y67.617 E.16956
G1 X122.428 Y67.833 E.03977
G1 X122.879 Y68.157 E.04505
G1 X123.318 Y68.622 E.05188
G1 X123.921 Y69.605 E.09356
G1 X124.082 Y70.049 E.03832
G1 X124.186 Y70.608 E.04613
G1 X124.185 Y71.197 E.04779
G1 X124.14 Y71.507 E.02541
G1 X125.546 Y72.047 E.12219
G1 X126.261 Y72.36 E.06332
G1 X126.494 Y72.254 E.02077
G1 X126.901 Y71.987 E.03949
G1 X127.577 Y71.452 E.06994
G1 X128.359 Y71.089 E.06995
